X: 10396
T: Donald Chisholm
R: jig
M: 6/8
K: Dmajor
F/E/|D2 A, A,A,D|A,DF DFA|dcd BAF|FED EFE|D2 A, A,A,D|
A,DF DFA|dcd BAF|EDC D2:|z|ded cBA|BdB AFA|
ded dcd|Bcd e3|ded cBA|BdB AFA|BdB AGF|
EDC D3|ded cBA|BdB AFA|ded dcd|Bcd e3|
fdf ece|dcB ABc|dcB AGF|EDC D2||

